symbols/web/local_convenience_store/materialsymbolssharp/local_convenience_store_wght700gradN25fill1_40px.svg

<svg xmlns="http://www.w3.org/2000/svg" height="40" width="40"><path d="M13.333 30.583h4.875V29h-3.291v-1.792h3.291v-4.875h-4.875v1.542h3.292v1.75h-3.292Zm11.75 0h1.584v-8.25h-1.584v3.292h-1.708v-3.292h-1.583v4.875h3.291ZM3.875 36.375V18.792q-1.208-1.167-1.479-2.813-.271-1.646.187-3.187l1.75-5.542q.459-1.458 1.584-2.354Q7.042 4 8.542 4h22.791q1.5 0 2.688.875 1.187.875 1.604 2.375l1.792 5.542q.458 1.5.125 3.083-.334 1.583-1.417 2.75v17.75Zm19.833-19.75q.959 0 1.604-.646.646-.646.521-1.521l-.958-6.208H21.75v6.208q0 .875.562 1.521.563.646 1.396.646Zm-7.625 0q.875 0 1.521-.625.646-.625.646-1.542V8.25h-3.125l-.917 6.208q-.125.834.396 1.5.521.667 1.479.667Zm-7.458 0q.792 0 1.354-.583.563-.584.646-1.334l1-6.458H8.458l-1.75 5.583q-.333 1.125.23 1.959.562.833 1.687.833Zm22.708 0q1.125 0 1.709-.813.583-.812.25-1.979l-1.75-5.583h-3.125l.958 6.458q.083.75.646 1.334.562.583 1.312.583Z"/></svg>

<svg xmlns="http://www.w3.org/2000/svg" height="40" width="40"><path d="M13.333 30.583H18.208V29H14.917V27.208H18.208V22.333H13.333V23.875H16.625V25.625H13.333ZM25.083 30.583H26.667V22.333H25.083V25.625H23.375V22.333H21.792V27.208H25.083ZM3.875 36.375V18.792Q2.667 17.625 2.396 15.979Q2.125 14.333 2.583 12.792L4.333 7.25Q4.792 5.792 5.917 4.896Q7.042 4 8.542 4H31.333Q32.833 4 34.021 4.875Q35.208 5.75 35.625 7.25L37.417 12.792Q37.875 14.292 37.542 15.875Q37.208 17.458 36.125 18.625V36.375ZM23.708 16.625Q24.667 16.625 25.312 15.979Q25.958 15.333 25.833 14.458L24.875 8.25H21.75V14.458Q21.75 15.333 22.312 15.979Q22.875 16.625 23.708 16.625ZM16.083 16.625Q16.958 16.625 17.604 16Q18.25 15.375 18.25 14.458V8.25H15.125L14.208 14.458Q14.083 15.292 14.604 15.958Q15.125 16.625 16.083 16.625ZM8.625 16.625Q9.417 16.625 9.979 16.042Q10.542 15.458 10.625 14.708L11.625 8.25H8.458Q8.458 8.25 8.458 8.25Q8.458 8.25 8.458 8.25L6.708 13.833Q6.375 14.958 6.938 15.792Q7.5 16.625 8.625 16.625ZM31.333 16.625Q32.458 16.625 33.042 15.812Q33.625 15 33.292 13.833L31.542 8.25Q31.542 8.25 31.542 8.25Q31.542 8.25 31.542 8.25H28.417L29.375 14.708Q29.458 15.458 30.021 16.042Q30.583 16.625 31.333 16.625Z"/></svg>
